X:1
T:Ahi cor pur sei
T:Ahi cor se pur
T:Giovanni Pietro Biandra
T:Source : Madrigaletti a1, 2 e 3 voci. Libro primo---Venezia---B.Magni (Gardano)---1626. Editor : André Vierendeels (13/03/15).
T:Notes : Original clefs ; C1, C1, F4, F4 Editorial accidentals above the staff Figures in BC are notated in original print
C:Giovanni Pietro Biandra
%%score [ 1 2 3 ] 4
L:1/8
Q:1/4=120
M:4/4
K:F
V:1 treble nm="Canto 1" snm="C 1"
V:2 treble nm="Canto 2" snm="C 2"
V:3 bass nm="Basso" snm="B"
V:4 bass nm="BC" snm="BC"
V:1
 d4 A4 | z ^ccc d2 d2 | z4 d4 | A4 z4 | z EEE F2 F2 | z ddd c2 c2 | d6 _ee | _e6 d2 | c4 c4 | %9
w: Ahi cor|se pur sei co- re,|ahi|cor|se pur sei co- re,|se pur sei co- re|co- me do-|lor non|sen- ti,|
 z2 d2 d2 c2 | B2 c2 A4 | d6 GF | E8 | ^F8 | z8 | z8 | z8 | z8 | z8 | z8 | z8 | z8 | z8 | z8 | z8 | %25
w: ve- den- d'in|Gie- su mio|tan- ti tor-|men-|ti,||||||||||||
 z8 | z8 | z8 | z2 =B4 GG | d4 d4 | d4 c4- | c4 =B4 |"^b" z2 B2 B2 B2 | B6 d2 | c2 B2 B4 | %35
w: |||son' i pie-|to- si'af-|fet- *|* ti,|d'un pu- ro|cor ve-|ra- ci mes-|
 d2 c2 B3 A | AG AB c3 B | A2 G2 A4 | G8 | z2 A2 d3 c | A4 z2 =B2 | c4 ^c4 | z2 dc =B2 BB | %43
w: s'e di- nan- zi|Dio _ _ _ _ splen-|di- de fa-|ci,|ma cor non|sei, sei|sas- so|e pur d'un le fa-|
 c2 Gc BAAG | GABc A4 | G8 | z2 G2 c3 c | B2 G2 A4 | A2 B2 B3 B | c2 c2 d4 | d4 D4 | E4 F4 | %52
w: vil- le tal' hor pre- cos- si|sas- sa mil- l'a mil-|le|e tu per-|cos- s'ahi las-|so, al- tro non|fai sen- ti-|re che|la- men-|
 G4 A4 | D2 D2 E2 CC | F2 DD G2 G2- | G2 ^F2 G4 | z8 | z8 | z8 | z8 | z8 | z8 | z8 | z8 | %64
w: te- vol|suon- di- sde- gni, di|sde- gni, di- sde- gni'e|_ i- re.|||||||||
 z2 G4 ^F2 | ^F4 z2 EE | E2 E2 A2 A2 | z4 z2 G2 | =B2 cc c2 B2 | c3 F G2 A2 | B2 A2 d3 G | G4 E4- | %72
w: Dhe Si-|gnor s'a de|no- te pre- ci,|à|la- gri- me pie _|do- ni gia ma-|i le no- stre|col- pe|
 E2 D4 ^C2 |[M:3/2] A6 A2 A4 | =B6 B2 c4 | c6 d2 c4 |[M:4/4] d4 z2 d2- | d2 c4 B2- | B2 A2 c4 | %79
w: _ ri- e,|can- gia- mi,|can- gia- mi,|som- ma- men-|te, tu|_ ch'a d'un|_ la- bro'in|
 A4 A2 AB | c2 BA BAcB | A4 G4 | z8 | z2 Bc d2 cB | cBAG A3 G | FD d4 ^c2 | d4 z4 | z4 z2 AB | %88
w: Cro- ce in un|pun- to can gian- ti'e men- t'e|vo- ce,||in un pun- to can-|gian- ti'e men- t'e vo- *||ce,|in un|
 c2 BA BAGF | E2 F2 E4 | D8 |] %91
w: pun- to can- gian- ti'e men- t'e|vo- * *|ce.|
V:2
 z4 F4 | E4 z4 | B4 A4 | z4 z =BBB | c2 c2 z4 | z BBB A4 | A4 B4- | B2 cc A2 B2 | B4 A4 | %9
w: Ahi|cor,|ahi cor|se pur sei|co- re,|se pur sei co-|re co-|* me do- lor non|sen- ti,|
 z2 A2 A2 A2 | G2 G2 ^F4 | z4 d4- | d2 ^c=B c4 | d8 | z2 =BB B2 cd | _e4 d4 | ^c2 c2 c2 de | %17
w: ve- den- d'in|Gie- su mio|tan-|* ti tor- men-|ti,|e se sen- ti do-|lo- re,|mi- ser co- me non|
"^-natural""^-natural" B2 B2 z2 c2- | c2 BA B3 c | A2 G2 F3 G | E4 D4 | z8 | z8 | z8 | z8 | z8 | %26
w: pian- gi, è|_ co- m'i du- ri'af-|fet- ti'ho- mai non|can- gi,||||||
 z8 | z8 | z2 d4 cc | c4 B4 | _e8 | d8 | z2 G2 G2 G2 | GF GA B3 B | A2 G2 F4 | F2 F2 G3 c | %36
w: ||son' i pie-|to- si'af-|fet-|ti,|d'un pu- ro|cor _ _ _ _ ve-|ra- ci mes-|s'e di- nan- zi|
 cB cd _e2 G2 | ^F2 G4 F2 | G8 | z8 | z8 | z8 | z8 | z8 | z8 | z2 D2 G4 | z2 G2 E2 F2 | F2 E2 F4 | %48
w: Dio _ _ _ _ splen-|di- de fa-|ci,|||||||e tu,|e tu per-|cos- s'ahi las-|
 F2 F2 G2 B2 | B2 A2 B4 | B4 F4 | G4 A4 | B4 c4 | =B4 G2 c2 | AA B4 c2 | A4 =B4 | z2 G4 AA | %57
w: so, al- tro non|fai sen- ti-|re che|la- men|te- vol|suon di sde-|gni, di- sde- gni'e|i- re,|ahi che non|
 B3 c A2 A2 | z2 B2 d2 _e2- | e2 cc c4 | B4 z2 d2 | c2 B2 A2 G2 | F2 E2 G3 F | E4 D4 | z2 B4 A2 | %65
w: sas- so se- i|c'hor mai rot-|* to fa- re-|sti co-|m'es- s'il di de|suoi tor- men- t'in-|fe- sti.|Dhe Si-|
 A4 z2 ^cc | ^c2 c2 d2 d2 | z2 d2 _e4- | e2 dc d4 | c2 A2 B2 c2 | d2 c2 c2 B2 | c4 G4 | F4 E4 | %73
w: gnor s'a de|no- te pre- ci,|à la-|* gri- me pie|do- ni gia ma-|i le no- stro|col- pe|ri- e,|
[M:3/2] ^F6 F2 F4 | G6 G2 G4 | A6 B2 A4 |[M:4/4] B4 z2 B2- | B2 A4 G2- | G2 ^F2 G4 | ^F4 F4 | z8 | %81
w: can- gia- mi,|can- gia- mi,|som- ma- men-|te, tu|_ ch'a d'un|_ la- bro'in|Cro- ce,||
 z8 | z2 FG A2 GF | BAGG ^F4 |"^-natural" G3 G F3 E | D2 F2 E4 | D4 z4 | z4 z2 FG | A2 GF GA=BB | %89
w: |in un pun- to can-|gian- ri'e men- t'e vo-|||ce,|in un|pun- to can- gian- ti'e men- t'e|
 ^c2 d4 c2 | d8 |] %91
w: vo- * *|ce.|
V:3
 z4 D,4 | A,,4 z4 | G,4 D,4 | z ^F,F,F, G,2 G,2 | z C,C,C, D,2 D,2 | z B,,B,,B,, F,4 | F,4 G,4- | %7
w: Ahi|cor,|ahi cor|se pur sei co- re,|se pur sei co- re|se pur sei co-|re co-|
 G,2 _E,E, F,3 F, | F,4 F,4 | z2 ^F,2 F,2 F,2 | G,2 _E,2 D,4 | =B,,6 C,D, | A,,8 | D,8 | z8 | z8 | %16
w: * me do- lor non|sen- ti,|ve- den- d'in|Gie- su mio|tan- ti tor-|men-|ti,|||
 z8 | z8 | z8 | z8 | z8 | z2 F,F, F,2 F,E, | G,2 G,2 z2 B,2- | B,2 A,G, F,E, D,2 | C,4 z2 E,2 | %25
w: |||||e se can- gi l'af-|fet- ti per|_ che non can- gi l'o-|pre, se|
 F,E,G,F, A,4- | A,F,F,E, E,4 | D,8 | z2 G,4 E,E, | ^F,4 G,4 | C,8 | G,8 | z2 _E,2 E,2 E,2 | %33
w: gen- nia nul- la val|_ che non s'a- do-|pri,|son' i pie-|to- s'af-|fet-|ti,|d'un pu- ro|
 _E,6 D,2 | F,2 G,2 B,4 | B,2 A,2 G,3 F, | F,4 C,4 | D,2 _E,2 D,4 | G,,8 | z8 | z8 | z8 | z8 | z8 | %44
w: cor ve-|ra- ci mes-|s'e di- nan- zi'à|Dio splen-|di- de fa-|ci,||||||
 z8 | z4 z2 G,,2 | C,6 A,,2 | B,,2 C,2 F,4 | F,2 D,2 _E,2 D,2 | _E,2 F,2 B,,4 | B,,4 B,4- | %51
w: |e|tu per-|cos- s'ahi las-|so, al- tro non|fai sen- ti-|re che|
 B,2 B,2 A,4- | A,2 G,4 ^F,2 | G,2 G,,2 C,2 A,,A,, | D,2 B,,B,, _E,2 C,2 | D,4 G,,4 | z8 | z8 | %58
w: _ la- men-|* te vol|suon di sde- gni, di|sde- gni, di sde- gni'e|i- re.|||
 z8 | z8 | z8 | z8 | z8 | z8 | z2 G,4 D,2 | D,4 z2 A,A, | A,3 G, ^F,2 F,2 | z4 z2 C,2 | %68
w: ||||||Dhe Si-|gnor s'a de|no- te pre- ci,-|à|
 G,,2 G,,G,, G,,4 | C,2 F,2 _E,2 C,2 | B,,2 F,2 ^F,2 G,2 | C,6 C,2 | A,,4 A,,4 | %73
w: la- gri- me pie|do- ni gia ma-|i le no- stro|col- pe|ri- e,|
[M:3/2] D,6 D,2 D,4 | G,6 G,2 C,4 | F,6 B,,2 F,4 |[M:4/4] B,,4 z4 | z8 | z8 | z8 | z8 | z8 | %82
w: can- gia- mi,|can- gia- mi,|som- ma- men-|te,||||||
 B,4 F,4 | G,4 D,4 | _E,4 D,4 | D,4 A,,4 | D,2 D,E, F,2 E,D, | E,D,E,C, D,4 | A,,4 G,,2 G,,2 | %89
w: tu ch'a|d'un la-|dro in|Cro- *|ce, in un pun- to can|gian- ti'e men- t'e vo-|* ce, e|
 A,,8 | D,8 |] %91
w: vo-|ce.|
V:4
 D,4 D,4 | A,,4 D,4 | G,4 D,4 | D,4 G,4 | C,4 D,4 | B,,4 F,4 | F,4 G,4- | G,2 _E,2 F,4 | F,8 | %9
 D,8 | G,2 _E,2 D,4 | =B,,6 C,D, | A,,8 | D,8 | G,8 |"^b6      5" G,8 | A,4 ^C,4 |"^#" E,4 A,4 | %18
 G,6 _E,2 | D,8 | A,,4 D,4 | F,8 | G,4 B,4- | B,2 A,2 F,2 D,2 | C,4 z2 E,2 | F,2 G,2 A,4- | %26
 A,2 F,2 E,4 | D,8 | G,6 E,2 | ^F,4 G,4 | C,8 | G,8 | _E,8 | _E,6 D,2 | F,2 G,2 B,4 | %35
 B,2 A,2 G,3 F, | F,4 C,4 | D,2 _E,2 D,4 | G,,8 | D,4 G,,4 | D,4 G,,4 | C,4 A,,4 | D,4 G,,4 | %43
 C,4 D,4 | _E,2 C,2 D,4 | G,,8 | C,6 A,,2 | B,,2 C,2 F,4 | F,2 D,2 _E,2 D,2 | _E,2 F,2 B,,4 | %50
 B,,4 B,4- | B,4 A,4 | A,2 G,4 ^F,2 | G,2 G,,2 C,2 A,,2 | D,2 B,,2 _E,2 C,2 | D,4 G,,4 | %56
 C,4 B,,2 A,,2 | G,,2 C,2 D,4 | G,8 | _E,4 F,4 | B,,8 | F,6 E,2 | D,2 C,2 B,,2 G,,2 | A,,4 D,4 | %64
 G,6 D,2 | D,4 A,4 | A,4 ^F,4 | G,4 C,4 | G,,8 | C,2 F,2 _E,2 C,2 | B,,2 F,2 ^F,2 G,2 | C,8 | %72
 A,,8 |[M:3/2] D,8 D,4 | G,8 C,4 | F,6 B,,2 F,4 |[M:4/4] B,,4 B,4 | F,4 G,4 | D,4 _E,4 | D,8 | %80
"^b" A,4 G,2 C,2 | D,4 G,,4 | B,4 F,4 | G,4 D,4 | _E,4 D,4 | D,4 A,,4 | D,4 F,4 | E,4 D,4 | %88
 A,,4 G,,4 | A,,8 | D,8 |] %91

